X: 21544
T: Kildare Fancy, The
R: hornpipe
M: 4/4
K: Dmajor
|B|:A2 FA AFdB|(3ABA FA fedc|B3d g2f2|(3efe (3dcB A3B|
AFDF AFdB|(3ABA (3FAd fedc|BGBd gefd|1 e2 dc d3B:|2 e2 dc d2de||
|:fdcd (3BcB AF|DFAd fedf|eAAA fAAf|(3efe (3dcB A2 de|
fdcd (3BcB AF|DFAd fedf|eAfA gAfA|1 (3efe dc d2de:|2 (3efe dc d2dB||

